X:196
T:Broken Pledge
M:4/4
L:1/8
R:reel
N:Sometimes played in Edor.
K:Ddor
|:dcAG ADDB|cAGF ECCE|DEFG Addc|AcGc Adfe|
dcAG A2dB|cAGF ECCE|DEFG Addc|AcGc ADD2:|
|:dcAG Acde|fAdf ecAB|cAGE GAcd|ecc2 eage|
dcAG Acde|fAdf ecAG|F2FE FGAB|cAGE FDD2:|
